X: 1
T: Alkumarssi
O: Haapaveden purpurista
S: Kes\"ajuhlat 2013, Saarij\"arvi; Suomalaisen Kansantanssin Yst\"av\"at r.y.
Z: 2013 John Chambers <jc:trillian.mit.edu>
M: C
L: 1/8
K: D
|:\
"D"A2de f2f^g | "A"a2ea/^g/ "D"f2fa | "A7"g2eg "D"f2dc/d/ |\
[1,3 "E7"e2Bc "A7"dcBA :|[2,4 "G"e2"A7"Bc "D"d2d2 :|
|:\
"D"Adfe eddc | "A"ceea a^ggf | "A7"g2g2 "D"feed |\
[1,3 "E7"dcBc "A7"dcBA :|[2,4 "G"dc"A7"Bc "D"d2d2 :|

%%sep 1 1 500

